outputs/icons/device/bluetooth_searching_round.svg

<svg xmlns="http://www.w3.org/2000/svg" width="1200" height="1200" fill="none"><g clip-path="url(#a)"><path fill="#000" d="m799 514.005-69 69c-10 10-10 25.5 0 35.5l69 69c14 14 37.5 7.5 42.5-11.5 5.5-25 8.5-50 8.5-76 0-25.5-3-50.5-9-74-4.5-19-28-26-42-12m206-125.003c-12.5-27.5-49-33.5-70-12-13 13-15.5 32-8.5 49 23 53.5 36 112.003 36 173.503 0 62-13 121-36.5 174.5-7 16-4.5 34.5 8 47 20.5 20.5 55 14.5 67.5-11.5 31.5-65 49-138 49-215-.5-72.5-16.5-142.502-45.5-205.503M570.5 600.005 750 421.002c19.5-19.5 19.5-51 0-71l-214.5-214.5c-31.5-31.5-85.502-9.5-85.502 35v309l-194.5-194.5c-19.499-19.5-50.999-19.5-70.499 0-19.501 19.5-19.501 51 0 70.5l244.499 244.503-244.499 244.5c-19.501 19.5-19.501 51 0 70.5 19.5 19.5 51 19.5 70.499 0l194.5-194.5v309c0 44.5 54.002 66.995 85.502 35.5l214.5-215c19.5-19.5 19.5-51 0-71zM550 291.502l94 94-94 94zm0 617.003v-188l94 94z"/></g><defs><clipPath id="a"><path fill="#fff" d="M0 0h1200v1200H0z"/></clipPath></defs></svg>

<svg width="1200" height="1200" viewBox="0 0 1200 1200" fill="none" xmlns="http://www.w3.org/2000/svg"><g clip-path="url(#clip0_231_4427)"><path d="M799.01 514.005L730.01 583.005C720.01 593.005 720.01 608.505 730.01 618.505L799.01 687.505C813.01 701.505 836.51 695.005 841.51 676.005C847.01 651.005 850.01 626.005 850.01 600.005C850.01 574.505 847.01 549.505 841.01 526.005C836.51 507.005 813.01 500.005 799.01 514.005ZM1005.01 389.002C992.51 361.502 956.01 355.502 935.01 377.002C922.01 390.002 919.51 409.002 926.51 426.002C949.51 479.502 962.51 538.005 962.51 599.505C962.51 661.505 949.51 720.505 926.01 774.005C919.01 790.005 921.51 808.505 934.01 821.005C954.51 841.505 989.01 835.505 1001.51 809.505C1033.01 744.505 1050.51 671.505 1050.51 594.505C1050.01 522.005 1034.01 452.003 1005.01 389.002ZM570.51 600.005L750.01 421.002C769.51 401.502 769.51 370.002 750.01 350.002L535.51 135.502C504.01 104.002 450.01 126.002 450.01 170.502V479.502L255.511 285.002C236.01 265.502 204.511 265.502 185.011 285.002C165.511 304.502 165.511 336.002 185.011 355.502L429.511 600.005L185.011 844.505C165.511 864.005 165.511 895.505 185.011 915.005C204.511 934.505 236.01 934.505 255.511 915.005L450.01 720.505V1029.505C450.01 1074.005 504.01 1096.5 535.51 1065.005L750.01 850.005C769.51 830.505 769.51 799.005 750.01 779.005L570.51 600.005ZM550.01 291.502L644.01 385.502L550.01 479.502V291.502ZM550.01 908.505V720.505L644.01 814.505L550.01 908.505Z" fill="#1D1E23"/></g><defs><clipPath id="clip0_231_4427"><path width="24" fill="white" d="M0 0H1200V1200H0V0z"/></clipPath></defs></svg>
